packages/react/src/components/base/Icon/assets/icon-lg-picnic-table.svg

<svg width="24" height="24" viewBox="0 0 24 24" xmlns="http://www.w3.org/2000/svg" fill="currentColor"> <g clip-path="url(#clip0_2001_46302)"> <path d="M23.375 11.625H19.5706L17.3206 7.125H18.5C18.7984 7.125 19.0845 7.00647 19.2955 6.7955C19.5065 6.58452 19.625 6.29837 19.625 6C19.625 5.70163 19.5065 5.41548 19.2955 5.2045C19.0845 4.99353 18.7984 4.875 18.5 4.875H6.5C6.20163 4.875 5.91548 4.99353 5.7045 5.2045C5.49353 5.41548 5.375 5.70163 5.375 6C5.375 6.29837 5.49353 6.58452 5.7045 6.7955C5.91548 7.00647 6.20163 7.125 6.5 7.125H7.67938L5.42938 11.625H1.625C1.32663 11.625 1.04048 11.7435 0.829505 11.9545C0.618526 12.1655 0.5 12.4516 0.5 12.75C0.5 13.0484 0.618526 13.3345 0.829505 13.5455C1.04048 13.7565 1.32663 13.875 1.625 13.875H4.30438L2.49406 17.4966C2.42375 17.6291 2.38066 17.7743 2.36732 17.9238C2.35397 18.0732 2.37065 18.2238 2.41637 18.3667C2.46209 18.5096 2.53593 18.6419 2.63354 18.7558C2.73115 18.8697 2.85056 18.963 2.98474 19.03C3.11893 19.0971 3.26517 19.1367 3.41488 19.1464C3.56459 19.1562 3.71473 19.1359 3.85647 19.0867C3.99821 19.0376 4.12869 18.9605 4.24022 18.8602C4.35176 18.7599 4.4421 18.6383 4.50594 18.5025L6.82062 13.875H18.1794L20.4941 18.5025C20.5579 18.6383 20.6482 18.7599 20.7598 18.8602C20.8713 18.9605 21.0018 19.0376 21.1435 19.0867C21.2853 19.1359 21.4354 19.1562 21.5851 19.1464C21.7348 19.1367 21.8811 19.0971 22.0153 19.03C22.1494 18.963 22.2689 18.8697 22.3665 18.7558C22.4641 18.6419 22.5379 18.5096 22.5836 18.3667C22.6293 18.2238 22.646 18.0732 22.6327 17.9238C22.6193 17.7743 22.5762 17.6291 22.5059 17.4966L20.6956 13.875H23.375C23.6734 13.875 23.9595 13.7565 24.1705 13.5455C24.3815 13.3345 24.5 13.0484 24.5 12.75C24.5 12.4516 24.3815 12.1655 24.1705 11.9545C23.9595 11.7435 23.6734 11.625 23.375 11.625ZM7.94562 11.625L10.1956 7.125H14.8044L17.0544 11.625H7.94562Z"/> </g> <defs> <clipPath id="clip0_2001_46302"> <rect width="24" height="24"/> </clipPath> </defs> </svg>

<svg viewBox="0 0 24 24" xmlns="http://www.w3.org/2000/svg" aria-hidden="true" fill="currentColor"><g clip-path="url(#a)"><path d="M23.375 11.625h-3.804l-2.25-4.5H18.5a1.125 1.125 0 0 0 0-2.25h-12a1.125 1.125 0 0 0 0 2.25h1.18l-2.25 4.5H1.624a1.125 1.125 0 1 0 0 2.25h2.68l-1.81 3.622a1.124 1.124 0 1 0 2.01 1.006l2.316-4.628h11.358l2.315 4.628a1.123 1.123 0 0 0 1.521.527 1.125 1.125 0 0 0 .49-1.533l-1.81-3.622h2.68a1.125 1.125 0 1 0 0-2.25m-15.43 0 2.25-4.5h4.61l2.25 4.5z"/></g><defs><clipPath id="a"><path d="M0 0h24v24H0z"/></clipPath></defs></svg>
